packages/ffe-icons/icons/filled/md/range_hood.svg

<svg xmlns="http://www.w3.org/2000/svg" height="24" viewBox="0 -960 960 960" width="24"><path d="M197.077-462.306q-18.077 0-25.307-16.577-7.231-16.577 5.615-29.423l122.616-123.232v-116.153q0-29.827 21.241-51.067 21.24-21.241 51.067-21.241h215.382q29.827 0 51.067 21.241 21.241 21.24 21.241 51.067v116.153L783.23-508.306q12.846 12.846 6.006 29.423-6.841 16.577-25.082 16.577H197.077Zm-24.768 282.305q-29.827 0-51.067-21.241-21.241-21.24-21.241-51.067v-113.845q0-15.366 10.395-25.76 10.394-10.394 25.759-10.394h687.69q15.365 0 25.759 10.394 10.395 10.394 10.395 25.76v113.845q0 29.827-21.241 51.067-21.24 21.241-51.067 21.241H172.309Zm251.537-118.153h112.308q10.333 0 17.09-6.752Q560-311.657 560-321.982t-6.756-17.095q-6.757-6.769-17.09-6.769H423.846q-10.333 0-17.09 6.752Q400-332.343 400-322.018t6.756 17.095q6.757 6.769 17.09 6.769Z"/></svg>

<svg xmlns="http://www.w3.org/2000/svg" height="24" viewBox="0 -960 960 960" width="24"><path d="M197.08-462.31q-18.08 0-25.31-16.57-7.23-16.58 5.62-29.43L300-631.54v-116.15q0-29.83 21.24-51.07Q342.48-820 372.31-820h215.38q29.83 0 51.07 21.24Q660-777.52 660-747.69v116.15l123.23 123.23q12.85 12.85 6.01 29.43-6.84 16.57-25.09 16.57H197.08ZM172.31-180q-29.83 0-51.07-21.24Q100-222.48 100-252.31v-113.84q0-15.37 10.4-25.76 10.39-10.4 25.76-10.4h687.68q15.37 0 25.76 10.4 10.4 10.39 10.4 25.76v113.84q0 29.83-21.24 51.07Q817.52-180 787.69-180H172.31Zm251.54-118.15h112.3q10.34 0 17.09-6.76 6.76-6.75 6.76-17.07 0-10.33-6.76-17.1-6.75-6.77-17.09-6.77h-112.3q-10.34 0-17.09 6.76-6.76 6.75-6.76 17.07 0 10.33 6.76 17.1 6.75 6.77 17.09 6.77Z"/></svg>
